!!!OTL: 126a. Reiter und Hirtenmaedchen.
!!!ARE: Europa, Mitteleuropa, Deutschland, Rheinland
!!!SCT: E0126
!!!TXL: @@DE
!!!YEM: Copyright 1995, estate of Helmut Schaffrath.
**kern	**text
*ICvox	*
*M6/8	*
*k[b-]	*
*F:	*
!LO:TX:a:t=Mel. vom Rhein.	!
{8c	Es
=1	=1
8fL	woll-
8cJ	-te
8f	ein
8a	Mäd-
8f	-chen
8a	die
=2	=2
(8ccL	Lämm-
8ddJ)	.
8cc	-lein
8a	hü-
8f}	-ten,
{16fL	im
16aJ	.
=3	=3
[4.cc	Hol-
8cc\L]	.
8g	.
8b-J	.
=4	=4
4a	-ʒe,
8r	.
4r}	.
{8c	Da
=5	=5
8fL	kam
8cJ	.
8f	ein
8a	Rit-
8f	-ter
8a	da-
=6	=6
(8ccL	-her
8ddJ)	.
8cc	ge-
8a	-rit-
8f}	-ten,
{16fL	ſo
16aJ	.
=7	=7
[4.cc	ſtol-
8cc\L]	.
8g	.
8b-J	.
=8	=8
4a	-ʒe
8r	.
4r}	.
{8a	Feins
=9	=9
(8a	Mädchen,
8g)	.
8g	feins
8g	Mäd-
8f	-chen,
8f	was
=10	=10
8a	ma-
8b-/	-cheſt
8a	du
4g}	hier?
{16gL	Hütſt
16aJ	.
=11	=11
8b-	du
8b-	dir
8b-	die
8b-	Lämmlein
8cc	.
8dd	und
=12	=12
(8dd	wei-
8cc)	-deſt
8cc	ſie
4a}	dir?
{16ccL	Da
16ffJ	.
=13	=13
8ff	lach-
8cc	-te
8cc	das
8cc	Mäd-
8b-	-chen
8a	ſo
=14	=14
[4.b-	ſeh-
8b-\L]	.
8g	.
8ccJ	.
=15	=15
4a	-re.
8r	.
4r}	.
==	==
!!!AGN: erzaehlendes Volks - Lied, Schalk -, Schelmen - Lied, betrogene Liebe, Ballade ?
!!!ONB: ESAC (Essen Associative Code) Database: ERK1
!!!AMT: compound duple
!!!AIN: vox
!!!EED: Helmut Schaffrath
!!!EEV: 1.0
!!!GTL: Schalks- und Schlemenlieder (Liebesabenteuer und betrogene Liebe)
!!!URL-scan: https://rosdok.uni-rostock.de/mcrviewer/recordIdentifier/rosdok_ppn745146120/iview2/phys_0504.iview2?x=103.3199030056744&y=2045.8634199723601&scale=0.6830750172916054&rotation=0&layout=singlePageLayout
!!!ENC: Anna Maria Matuszewska
!!!EEV: 2024/03/12
*-	*-
